public/img/field-3.svg

<svg width="64" height="64" viewBox="0 0 64 64" fill="none" xmlns="http://www.w3.org/2000/svg">
<path d="M27.8203 11.1979L28.1816 13.1649C28.7819 13.0551 29.3908 12.9999 30.001 13C31.5812 12.995 33.1397 13.3687 34.5458 14.0898L35.4561 12.309C34.3702 11.7521 33.2047 11.3663 32.001 11.1653V9H34.001C34.1323 9 34.2623 8.97414 34.3837 8.92389C34.505 8.87363 34.6152 8.79997 34.7081 8.70712C34.801 8.61426 34.8746 8.50401 34.9249 8.38269C34.9751 8.26136 35.001 8.13132 35.001 8V3C35.001 2.86868 34.9751 2.73864 34.9249 2.61731C34.8746 2.49598 34.801 2.38574 34.7081 2.29288C34.6152 2.20003 34.505 2.12637 34.3837 2.07611C34.2623 2.02586 34.1323 2 34.001 2H29.001C28.8697 2 28.7396 2.02586 28.6183 2.07611C28.497 2.12637 28.3867 2.20003 28.2939 2.29288C28.201 2.38574 28.1273 2.49598 28.0771 2.61731C28.0268 2.73864 28.001 2.86868 28.001 3V8C28.001 8.13132 28.0268 8.26136 28.0771 8.38269C28.1273 8.50401 28.201 8.61426 28.2939 8.70712C28.3867 8.79997 28.497 8.87363 28.6183 8.92389C28.7396 8.97414 28.8697 9 29.001 9H30.001V11C29.2696 10.9999 28.5397 11.0662 27.8203 11.1979ZM30.001 4H33.001V7H30.001V4Z" fill="#472880"/>
<path d="M14 18H9C8.86868 18 8.73864 18.0259 8.61731 18.0761C8.49599 18.1264 8.38574 18.2 8.29288 18.2929C8.20003 18.3857 8.12637 18.496 8.07611 18.6173C8.02586 18.7386 8 18.8687 8 19V24C8 24.1313 8.02586 24.2614 8.07611 24.3827C8.12637 24.504 8.20003 24.6143 8.29288 24.7071C8.38574 24.8 8.49599 24.8736 8.61731 24.9239C8.73864 24.9741 8.86868 25 9 25H14C14.1313 25 14.2614 24.9741 14.3827 24.9239C14.504 24.8736 14.6143 24.8 14.7071 24.7071C14.8 24.6143 14.8736 24.504 14.9239 24.3827C14.9741 24.2614 15 24.1313 15 24V22H18.0427C18.0155 22.3306 18 22.6639 18 23C18 23.3636 18.0165 23.7303 18.0489 24.0899L20.0408 23.9101C20.0137 23.61 20 23.3038 20 23C19.9957 21.1555 20.5034 19.3459 21.4665 17.7728C22.4296 16.1997 23.8104 14.9247 25.4552 14.0898L24.5448 12.309C23.724 12.7287 22.9538 13.2406 22.2491 13.8349L19 10.5858V3C19 2.86868 18.9741 2.73864 18.9239 2.61731C18.8736 2.49598 18.8 2.38574 18.7071 2.29288C18.6143 2.20003 18.504 2.12637 18.3827 2.07611C18.2614 2.02586 18.1313 2 18 2H10C9.86868 2 9.73864 2.02586 9.61731 2.07611C9.49599 2.12637 9.38574 2.20003 9.29288 2.29288C9.20003 2.38574 9.12637 2.49598 9.07611 2.61731C9.02586 2.73864 9 2.86868 9 3V11C9 11.1313 9.02586 11.2614 9.07611 11.3827C9.12637 11.504 9.20003 11.6143 9.29288 11.7071C9.38574 11.8 9.49599 11.8736 9.61731 11.9239C9.73864 11.9741 9.86868 12 10 12H17.5858L20.8329 15.247C19.6649 16.6249 18.8254 18.2501 18.3778 20H15V19C15 18.8687 14.9741 18.7386 14.9239 18.6173C14.8736 18.496 14.8 18.3857 14.7071 18.2929C14.6143 18.2 14.504 18.1264 14.3827 18.0761C14.2614 18.0259 14.1313 18 14 18ZM13 23H10V20H13V23ZM17 10H11V4H17V10Z" fill="#472880"/>
<path d="M48 18H59C59.1313 18 59.2614 17.9741 59.3827 17.9239C59.504 17.8736 59.6143 17.8 59.7071 17.7071C59.8 17.6143 59.8736 17.504 59.9239 17.3827C59.9741 17.2614 60 17.1313 60 17V6C60 5.86868 59.9741 5.73864 59.9239 5.61731C59.8736 5.49598 59.8 5.38574 59.7071 5.29288C59.6143 5.20003 59.504 5.12637 59.3827 5.07611C59.2614 5.02586 59.1313 5 59 5H48C47.8687 5 47.7386 5.02586 47.6173 5.07611C47.496 5.12637 47.3857 5.20003 47.2929 5.29288C47.2 5.38574 47.1264 5.49598 47.0761 5.61731C47.0259 5.73864 47 5.86868 47 6V12.4457L40.2096 16.6897C39.5184 15.5738 38.6493 14.5786 37.6368 13.7433L36.3632 15.2854C38.2963 16.8798 39.5602 19.1419 39.9049 21.6238C40.2496 24.1057 39.6499 26.6266 38.2245 28.6874L36.2252 28.021C37.0284 27.0252 37.5811 25.8512 37.8367 24.5975C38.0924 23.3439 38.0436 22.0473 37.6945 20.8164C37.3454 19.5855 36.7062 18.4564 35.8304 17.5237C34.9546 16.591 33.8679 15.8819 32.6614 15.4561C31.455 15.0302 30.164 14.9 28.8967 15.0763C27.6295 15.2526 26.4231 15.7303 25.3787 16.4693C24.3343 17.2083 23.4824 18.1871 22.8945 19.3234C22.3066 20.4598 21.9998 21.7206 22 23C22 23.3819 22.027 23.7634 22.0809 24.1415L24.0608 23.8585C24.0203 23.5741 24 23.2872 24 23C23.9997 22.0078 24.2454 21.0311 24.7152 20.1572C25.185 19.2833 25.8642 18.5395 26.6919 17.9925C27.5197 17.4455 28.4702 17.1123 29.4583 17.0227C30.4464 16.9331 31.4413 17.09 32.3539 17.4792C33.2665 17.8685 34.0684 18.478 34.6877 19.2531C35.307 20.0283 35.7244 20.9449 35.9025 21.921C36.0806 22.897 36.0139 23.902 35.7084 24.8459C35.4029 25.7899 34.868 26.6433 34.1517 27.3298L33.8166 27.2181L32.3159 21.9655C32.1363 21.337 31.7356 20.7946 31.1877 20.4382C30.6397 20.0819 29.9815 19.9355 29.3342 20.0262C28.6868 20.1168 28.0941 20.4384 27.6652 20.9316C27.2362 21.4248 27 22.0564 27 22.7101V28.1986C26.1185 27.6891 25.3809 26.9641 24.8565 26.0914L23.1434 27.1235C24.0371 28.6114 25.3908 29.7679 27 30.4183V31.5858L26.2952 32.2906C25.021 31.7847 23.8648 31.0215 22.8988 30.0486C21.9329 29.0757 21.1781 27.9141 20.6814 26.6362L18.8184 27.3638C18.9041 27.5834 18.996 27.7995 19.0939 28.0121L12.7131 32H5C4.86868 32 4.73864 32.0259 4.61731 32.0761C4.49598 32.1264 4.38574 32.2 4.29288 32.2929C4.20003 32.3857 4.12637 32.496 4.07611 32.6173C4.02586 32.7386 4 32.8687 4 33V41C4 41.1313 4.02586 41.2614 4.07611 41.3827C4.12637 41.504 4.20003 41.6143 4.29288 41.7071C4.38574 41.8 4.49598 41.8736 4.61731 41.9239C4.73864 41.9741 4.86868 42 5 42H13C13.1313 42 13.2614 41.9741 13.3827 41.9239C13.504 41.8736 13.6143 41.8 13.7071 41.7071C13.8 41.6143 13.8736 41.504 13.9239 41.3827C13.9741 41.2614 14 41.1313 14 41V33.5543L20.0771 29.7561C21.2597 31.4973 22.8814 32.8951 24.778 33.8078L23.2929 35.2929C23.2 35.3858 23.1264 35.496 23.0761 35.6173C23.0259 35.7386 23 35.8687 23 36V42C23 42.2339 23.082 42.4605 23.2318 42.6402L28 48.3621V61C28 61.1313 28.0259 61.2614 28.0761 61.3827C28.1264 61.504 28.2 61.6143 28.2929 61.7071C28.3857 61.8 28.496 61.8736 28.6173 61.9239C28.7386 61.9741 28.8687 62 29 62H42C42.1313 62 42.2614 61.9741 42.3827 61.9239C42.504 61.8736 42.6143 61.8 42.7071 61.7071C42.8 61.6143 42.8736 61.504 42.9239 61.3827C42.9741 61.2614 43 61.1313 43 61V48.2361L45.8944 42.4472C45.9639 42.3084 46 42.1552 46 42V34.0722C46.0008 33.2587 45.7452 32.4657 45.2695 31.8058C44.7939 31.1458 44.1224 30.6526 43.3504 30.3961L40.1857 29.3412C40.9682 28.0803 41.5112 26.6857 41.7875 25.2277L48 26.7808V30C48 30.1313 48.0259 30.2614 48.0761 30.3827C48.1264 30.504 48.2 30.6143 48.2929 30.7071C48.3857 30.8 48.496 30.8736 48.6173 30.9239C48.7386 30.9741 48.8687 31 49 31H55C55.1313 31 55.2614 30.9741 55.3827 30.9239C55.504 30.8736 55.6143 30.8 55.7071 30.7071C55.8 30.6143 55.8736 30.504 55.9239 30.3827C55.9741 30.2614 56 30.1313 56 30V24C56 23.8687 55.9741 23.7386 55.9239 23.6173C55.8736 23.496 55.8 23.3857 55.7071 23.2929C55.6143 23.2 55.504 23.1264 55.3827 23.0761C55.2614 23.0259 55.1313 23 55 23H49C48.8687 23 48.7386 23.0259 48.6173 23.0761C48.496 23.1264 48.3857 23.2 48.2929 23.2929C48.2 23.3857 48.1264 23.496 48.0761 23.6173C48.0259 23.7386 48 23.8687 48 24V24.7192L41.9953 23.218C41.9967 23.1453 42 23.0728 42 23C42.0012 21.4505 41.7023 19.9154 41.1196 18.4795L47 14.8043V17C47 17.1313 47.0259 17.2614 47.0761 17.3827C47.1264 17.504 47.2 17.6143 47.2929 17.7071C47.3857 17.8 47.496 17.8736 47.6173 17.9239C47.7386 17.9741 47.8687 18 48 18ZM12 40H6V34H12V40ZM44 34.0722V41.7639L41.1056 47.5528C41.0361 47.6916 41 47.8448 41 48V60H30V48C30 47.7661 29.918 47.5395 29.7682 47.3598L25 41.6379V36.4142L27 34.4142V40H29V22.7101C29 22.5388 29.0619 22.3733 29.1743 22.2441C29.2867 22.1149 29.442 22.0306 29.6116 22.0069C29.7812 21.9831 29.9537 22.0215 30.0972 22.1148C30.2408 22.2082 30.3458 22.3503 30.3928 22.515L32 28.1401V35H34V29.3874L36 30.0541V35H38V30.7207L40 31.3874V35H42V32.0541L42.718 32.2934C43.0915 32.4175 43.4164 32.6562 43.6466 32.9755C43.8767 33.2949 44.0004 33.6786 44 34.0722ZM50 25H54V29H50V25ZM49 7H58V16H49V7Z" fill="#472880"/>
<rect x="61" y="54" width="10" height="57" transform="rotate(90 61 54)" fill="#715F7A"/>
</svg>

<svg width="64" height="64" fill="none" xmlns="http://www.w3.org/2000/svg"><path d="M27.82 11.198l.362 1.967c.6-.11 1.209-.165 1.819-.165a9.891 9.891 0 014.545 1.09l.91-1.781a11.848 11.848 0 00-3.455-1.144V9h2a1 1 0 001-1V3a1.001 1.001 0 00-1-1h-5a1 1 0 00-1 1v5a1 1 0 001 1h1v2a12.1 12.1 0 00-2.18.198zM30.001 4h3v3h-3V4zM14 18H9a1.001 1.001 0 00-1 1v5a1 1 0 001 1h5a1.001 1.001 0 001-1v-2h3.043a12.188 12.188 0 00.006 2.09l1.992-.18c-.027-.3-.041-.606-.041-.91a9.967 9.967 0 015.455-8.91l-.91-1.781c-.821.42-1.591.932-2.296 1.526L19 10.585V3a1.001 1.001 0 00-1-1h-8a1 1 0 00-1 1v8a1 1 0 001 1h7.586l3.247 3.247A11.918 11.918 0 0018.378 20H15v-1a1.001 1.001 0 00-1-1zm-1 5h-3v-3h3v3zm4-13h-6V4h6v6z" fill="#472880"/><path d="M48 18h11a1.001 1.001 0 001-1V6a1.001 1.001 0 00-1-1H48a1 1 0 00-1 1v6.446l-6.79 4.244a12.036 12.036 0 00-2.573-2.947l-1.274 1.542a10 10 0 011.861 13.402l-1.999-.666A7.998 7.998 0 1022 23c0 .382.027.763.08 1.142l1.98-.284a6 6 0 1110.09 3.471l-.333-.11-1.501-5.254A2.71 2.71 0 0027 22.71v5.49a6.008 6.008 0 01-2.143-2.108l-1.714 1.032A7.992 7.992 0 0027 30.419v1.168l-.705.705a9.972 9.972 0 01-5.614-5.655l-1.863.728a12 12 0 00.276.648L12.714 32H5a1.001 1.001 0 00-1 1v8a1 1 0 001 1h8a1.001 1.001 0 001-1v-7.446l6.077-3.798a11.943 11.943 0 004.701 4.052l-1.485 1.485A1 1 0 0023 36v6a1 1 0 00.232.64L28 48.362V61a1.001 1.001 0 001 1h13a1.001 1.001 0 001-1V48.236l2.894-5.789A.999.999 0 0046 42v-7.928a3.87 3.87 0 00-2.65-3.676l-3.164-1.055a12.06 12.06 0 001.602-4.113L48 26.78V30a1.001 1.001 0 001 1h6a1.001 1.001 0 001-1v-6a1.001 1.001 0 00-1-1h-6a1.001 1.001 0 00-1 1v.72l-6.005-1.502c.002-.073.005-.145.005-.218a11.997 11.997 0 00-.88-4.52L47 14.804V17a1.001 1.001 0 001 1zM12 40H6v-6h6v6zm32-5.928v7.692l-2.894 5.789A.999.999 0 0041 48v12H30V48a1 1 0 00-.232-.64L25 41.638v-5.224l2-2V40h2V22.71a.71.71 0 011.393-.195L32 28.14V35h2v-5.613l2 .667V35h2v-4.28l2 .667V35h2v-2.946l.718.24A1.873 1.873 0 0144 34.071zM50 25h4v4h-4v-4zM49 7h9v9h-9V7z" fill="#472880"/><path fill="#715F7A" d="M61 54v10H4V54z"/></svg>
